8/img/svg/icon-gift.svg

<svg width="78" height="76" viewBox="0 0 78 76" fill="none" xmlns="http://www.w3.org/2000/svg">
<path d="M74.4427 22.1237H74.3197H44.4427C61.164 15.3237 62.5164 11.0237 61.9017 8.62371C60.5492 4.72371 55.0164 1.72371 49.8525 3.32371C43.0902 5.42371 41.2459 13.6237 39.4017 19.5237C37.0656 13.5237 34.8525 5.92371 29.5656 2.02371C28.0902 0.923705 25.8771 -0.176294 22.5574 0.0237057C17.6394 0.423706 10.6312 5.32371 13.582 10.8237C16.2869 16.1237 25.2623 19.5237 31.2869 22.2237H3.86889C1.90168 22.2237 0.42627 23.5237 0.42627 25.0237V36.2237C0.42627 37.8237 2.02463 39.0237 3.86889 39.0237H4.23774V75.0237H74.3197V39.0237H74.4427C76.4099 39.0237 77.8853 37.7237 77.8853 36.2237V25.0237C77.8853 23.4237 76.2869 22.1237 74.4427 22.1237ZM51.8197 5.82371C54.4017 5.52371 57.8443 7.12371 58.2132 9.02371C58.705 11.7237 54.1558 14.2237 52.0656 15.3237C48.9918 17.0237 46.041 17.9237 43.2132 19.3237C44.1968 15.6237 46.2869 6.42371 51.8197 5.82371ZM24.0328 15.6237C21.3279 14.1237 16.164 11.2237 16.2869 7.92371C16.4099 4.32371 23.2951 1.42371 26.9836 4.12371C31.6558 7.42371 33.8689 15.1237 35.5902 20.5237C31.6558 18.9237 27.9673 17.7237 24.0328 15.6237ZM31.2869 72.0237H7.80332V39.0237H31.2869V72.0237ZM31.2869 36.0237H4.11479V25.1237H31.2869V36.0237ZM43.582 72.0237H34.8525V25.1237H43.582V72.0237ZM70.6312 72.0237H47.2705V39.0237H70.7541V72.0237H70.6312ZM74.1968 36.0237H47.2705V25.1237H74.1968V36.0237Z" fill="#81B3D2"/>
</svg>

<svg width="78" height="76" fill="none" xmlns="http://www.w3.org/2000/svg"><path d="M74.443 22.124h-30c16.721-6.8 18.073-11.1 17.459-13.5-1.353-3.9-6.886-6.9-12.05-5.3-6.762 2.1-8.606 10.3-10.45 16.2-2.336-6-4.55-13.6-9.836-17.5-1.476-1.1-3.689-2.2-7.009-2-4.918.4-11.926 5.3-8.975 10.8 2.705 5.3 11.68 8.7 17.705 11.4H3.869c-1.967 0-3.443 1.3-3.443 2.8v11.2c0 1.6 1.599 2.8 3.443 2.8h.369v36H74.32v-36h.123c1.967 0 3.442-1.3 3.442-2.8v-11.2c0-1.6-1.598-2.9-3.442-2.9ZM51.82 5.824c2.582-.3 6.024 1.3 6.393 3.2.492 2.7-4.057 5.2-6.147 6.3-3.074 1.7-6.025 2.6-8.853 4 .984-3.7 3.074-12.9 8.607-13.5Zm-27.787 9.8c-2.705-1.5-7.869-4.4-7.746-7.7.123-3.6 7.008-6.5 10.697-3.8 4.672 3.3 6.885 11 8.606 16.4-3.934-1.6-7.623-2.8-11.557-4.9Zm7.254 56.4H7.803v-33h23.484v33Zm0-36H4.115v-10.9h27.172v10.9Zm12.295 36h-8.73v-46.9h8.73v46.9Zm27.05 0H47.27v-33h23.484v33h-.123Zm3.565-36H47.27v-10.9h26.927v10.9Z" fill="#81B3D2"/></svg>
